dist/assets/img/promo/sdpp/scheme/scheme-1.svg

<svg width="227" height="246" viewBox="0 0 227 246" fill="none" xmlns="http://www.w3.org/2000/svg">
<path d="M225.879 199.166L219.898 203.072L80.6443 100.702L75.6562 3.99046L80.6443 1L225.712 84.7509L225.879 199.166Z" fill="#85898C" stroke="#26144D" stroke-width="1.5" stroke-linecap="round" stroke-linejoin="round"/>
<path d="M220.724 187.449L75.6631 103.692V3.99023L220.724 87.7411V187.449Z" fill="#9DA0A3" stroke="#26144D" stroke-width="1.5" stroke-linecap="round" stroke-linejoin="round"/>
<path d="M213.409 172.175L198.965 163.837C197.948 163.251 197.123 161.672 197.123 160.315V157.755C197.123 156.397 197.948 155.775 198.965 156.361L213.409 164.699C214.426 165.285 215.251 166.864 215.251 168.221V170.781C215.251 172.139 214.426 172.761 213.409 172.175Z" fill="#BCBCBC"/>
<path d="M206.43 159.213L191.986 150.875C190.969 150.289 190.144 148.71 190.144 147.353V144.793C190.144 143.435 190.969 142.813 191.986 143.399L206.43 151.737C207.446 152.323 208.272 153.902 208.272 155.259V157.819C208.272 159.177 207.446 159.799 206.43 159.213Z" fill="#BCBCBC"/>
<path d="M187.739 134.291L173.295 125.954C172.279 125.367 171.453 123.788 171.453 122.431V119.871C171.453 118.513 172.279 117.891 173.295 118.477L187.739 126.815C188.756 127.401 189.581 128.98 189.581 130.338V132.897C189.581 134.255 188.756 134.877 187.739 134.291Z" fill="#BCBCBC"/>
<path d="M195.216 129.555L180.772 121.217C179.755 120.631 178.93 119.052 178.93 117.694V115.135C178.93 113.777 179.755 113.155 180.772 113.741L195.216 122.078C196.233 122.665 197.058 124.244 197.058 125.601V128.161C197.058 129.519 196.233 130.141 195.216 129.555Z" fill="#BCBCBC"/>
<path d="M100.496 56.2695L86.0521 47.9321C85.0353 47.3459 84.21 45.767 84.21 44.4093V41.8495C84.21 40.4918 85.0353 39.8698 86.0521 40.4559L100.496 48.7933C101.513 49.3794 102.338 50.9584 102.338 52.3161V54.8759C102.338 56.2336 101.513 56.8556 100.496 56.2695Z" fill="#BCBCBC"/>
<path d="M108.97 52.0292L94.5257 43.6918C93.509 43.1057 92.6836 41.5267 92.6836 40.1691V37.6092C92.6836 36.2515 93.509 35.6295 94.5257 36.2157L108.97 44.5531C109.986 45.1392 110.812 46.7182 110.812 48.0758V50.6357C110.812 51.9933 109.986 52.6154 108.97 52.0292Z" fill="#BCBCBC"/>
<path d="M135.143 89.9189L120.699 81.5815C119.682 80.9953 118.856 79.4164 118.856 78.0587V75.4989C118.856 74.1412 119.682 73.5192 120.699 74.1053L135.143 82.4427C136.159 83.0288 136.985 84.6078 136.985 85.9655V88.5253C136.985 89.883 136.159 90.505 135.143 89.9189Z" fill="#BCBCBC"/>
<path d="M143.869 85.4335L129.425 77.0961C128.408 76.51 127.583 74.931 127.583 73.5733V71.0135C127.583 69.6558 128.408 69.0338 129.425 69.62L143.869 77.9574C144.886 78.5435 145.711 80.1225 145.711 81.4801V84.04C145.711 85.3976 144.886 86.0197 143.869 85.4335Z" fill="#BCBCBC"/>
<path d="M176.519 88.4228L162.076 80.0854C161.059 79.4992 160.233 77.9203 160.233 76.5626V74.0028C160.233 72.6451 161.059 72.0231 162.076 72.6092L176.519 80.9466C177.536 81.5328 178.362 83.1117 178.362 84.4694V87.0292C178.362 88.3869 177.536 89.0089 176.519 88.4228Z" fill="#BCBCBC"/>
<path d="M167.799 74.2118L153.355 65.8744C152.338 65.2883 151.513 63.7093 151.513 62.3517V59.7918C151.513 58.4342 152.338 57.8121 153.355 58.3983L167.799 66.7357C168.816 67.3218 169.641 68.9008 169.641 70.2585V72.8183C169.641 74.176 168.816 74.798 167.799 74.2118Z" fill="#BCBCBC"/>
<path d="M187.487 85.4335L173.043 77.0961C172.027 76.51 171.201 74.931 171.201 73.5733V71.0135C171.201 69.6558 172.027 69.0338 173.043 69.62L187.487 77.9574C188.504 78.5435 189.329 80.1225 189.329 81.4801V84.04C189.329 85.3976 188.504 86.0197 187.487 85.4335Z" fill="#BCBCBC"/>
<path d="M95.5068 26.1083L81.0628 17.7709C80.0461 17.1848 79.2207 15.6058 79.2207 14.2482V11.6883C79.2207 10.3306 80.0461 9.70863 81.0628 10.2948L95.5068 18.6322C96.5235 19.2183 97.3489 20.7973 97.3489 22.1549V24.7148C97.3489 26.0724 96.5235 26.6945 95.5068 26.1083Z" fill="#BCBCBC"/>
<path d="M220.725 87.7414L225.713 84.751" stroke="#26144D" stroke-width="1.5" stroke-linecap="round" stroke-linejoin="round"/>
<path d="M147.433 229.978L1.12207 145.77L75.9265 102.609L222.238 186.817L147.433 229.978Z" fill="#4DA5FF" stroke="#26144D" stroke-width="1.5" stroke-linecap="round" stroke-linejoin="round"/>
<path d="M147.311 244.581L1 160.367V145.656L147.311 229.864V244.581Z" fill="#999999" stroke="#26144D" stroke-width="1.5" stroke-linecap="round" stroke-linejoin="round"/>
<path d="M222.184 201.527L147.38 244.688V229.977L222.184 186.816V201.527Z" fill="#D9D9D9" stroke="#26144D" stroke-width="1.5" stroke-linecap="round" stroke-linejoin="round"/>
<g style="mix-blend-mode:multiply" opacity="0.46">
<path d="M132.019 209.933L156.384 224.752L214.282 191.94L184.624 172.537L132.019 209.933Z" fill="#B2B4B3"/>
</g>
<path d="M137.204 213.05L30.5186 151.28V82.6406L137.204 144.404V213.05Z" fill="#004DA9" stroke="#26144D" stroke-width="1.5" stroke-linecap="round" stroke-linejoin="round"/>
<path d="M137.219 144.246L30.5332 82.476L84.0729 51.5879L190.752 113.358L137.219 144.246Z" fill="#0069EA" stroke="#26144D" stroke-width="1.5" stroke-linecap="round" stroke-linejoin="round"/>
<path d="M190.8 182.156L137.261 213.044V144.404L190.8 113.51V182.156Z" fill="#0069EA" stroke="#26144D" stroke-width="1.5" stroke-linecap="round" stroke-linejoin="round"/>
<path d="M117.514 159.02V193.686L85.1816 175.032V140.366L87.6976 141.82L117.514 159.02Z" stroke="#26144D" stroke-width="1.5" stroke-linecap="round" stroke-linejoin="round"/>
<path d="M117.515 159.02V190.905L87.6982 173.705V141.82L117.515 159.02Z" fill="#003C93" stroke="#26144D" stroke-width="1.5" stroke-linecap="round" stroke-linejoin="round"/>
<path d="M183.101 153.065L179.797 160.982L164.765 196.981L160.356 207.552L153.469 203.495L153.577 172.315C153.659 163.998 159.593 153.934 166.843 149.839C168.92 148.671 170.877 148.112 172.611 148.112C174.346 148.112 175.725 148.62 176.887 149.579L183.101 153.065Z" fill="#004DA9" stroke="#26144D" stroke-width="1.5" stroke-linecap="round" stroke-linejoin="round"/>
<path d="M179.794 160.98L179.54 188.465L164.762 196.98L179.794 160.98Z" stroke="#26144D" stroke-width="1.5" stroke-linecap="round" stroke-linejoin="round"/>
<path d="M186.423 192.516L160.349 207.551L160.457 176.371C160.533 168.053 166.473 157.99 173.722 153.895C180.972 149.8 186.785 153.228 186.709 161.546L186.423 192.516Z" fill="#0069EA" stroke="#26144D" stroke-width="1.5" stroke-linecap="round" stroke-linejoin="round"/>
<path d="M186.215 162.925L183.846 167.23L176.349 180.88L173.706 185.68L168.934 182.982C166.844 182.245 165.51 180.036 165.51 176.696C165.51 170.836 169.627 163.712 174.703 160.785C177.53 159.154 180.059 159.166 181.743 160.506H181.749L186.215 162.925Z" fill="#004DA9" stroke="#26144D" stroke-width="1.5" stroke-linecap="round" stroke-linejoin="round"/>
<path d="M186.354 178.021C189.944 171.808 189.944 165.093 186.355 163.022C182.767 160.951 176.947 164.31 173.358 170.523C169.768 176.736 169.768 183.451 173.356 185.522C176.945 187.592 182.764 184.234 186.354 178.021Z" fill="#0069EA" stroke="#26144D" stroke-width="1.5" stroke-linecap="round" stroke-linejoin="round"/>
<path d="M167.018 127.333L65.5996 66.3436L73.5794 55.7217L167.8 110.279L167.018 127.333Z" stroke="#26144D" stroke-width="1.5" stroke-linecap="round" stroke-linejoin="round"/>
<path d="M167.021 127.332L167.802 110.278L183.787 101.06L190.801 113.51L167.021 127.332Z" fill="#037BF4" stroke="#26144D" stroke-width="1.5" stroke-linecap="round" stroke-linejoin="round"/>
<path d="M167.802 110.278L73.582 55.7203L89.5671 46.4951L183.787 101.059L167.802 110.278Z" fill="#037BF4" stroke="#26144D" stroke-width="1.5" stroke-linecap="round" stroke-linejoin="round"/>
<path d="M43.3912 89.8902L75.2659 71.1034C75.2659 71.1034 43.226 66.7797 42.9591 66.8685C42.6923 66.9574 39.5156 77.9794 39.5156 77.9794L43.3848 89.8902H43.3912Z" fill="#004DA9" stroke="#26144D" stroke-width="1.5" stroke-linecap="round" stroke-linejoin="round"/>
<path d="M124.39 136.728L128.843 124.023L138.024 129.319L137.262 144.404L124.39 136.728Z" fill="#004DA9" stroke="#26144D" stroke-width="1.5" stroke-linecap="round" stroke-linejoin="round"/>
<path d="M30.6514 82.4812L36.0771 70.4434L43.7583 74.894L43.3644 90.1571L30.6514 82.4812Z" fill="#004DA9" stroke="#26144D" stroke-width="1.5" stroke-linecap="round" stroke-linejoin="round"/>
<path d="M156.36 116.352V118.606L137.999 129.368L131.048 113.438L38.6387 60.3408L58.2451 48.7728C60.742 47.2236 64.2427 47.3824 68.1119 49.6172L142.649 92.6193C150.21 96.9811 156.36 107.628 156.36 116.352Z" fill="#037BF4" stroke="#26144D" stroke-width="1.5" stroke-linecap="round" stroke-linejoin="round"/>
<path d="M51.019 154.872L50.5425 154.599C49.9072 154.231 49.3926 153.253 49.3926 152.409V135.603C49.3926 134.759 49.9072 134.371 50.5425 134.733L51.019 135.006C51.6544 135.374 52.169 136.352 52.169 137.197V154.003C52.169 154.847 51.6544 155.234 51.019 154.872Z" fill="#003C93" stroke="#26144D" stroke-width="1.5" stroke-linecap="round" stroke-linejoin="round"/>
<path d="M56.064 157.786L55.5875 157.513C54.9521 157.145 54.4375 156.167 54.4375 155.323V138.517C54.4375 137.673 54.9521 137.285 55.5875 137.647L56.064 137.92C56.6993 138.289 57.2139 139.266 57.2139 140.111V156.917C57.2139 157.761 56.6993 158.148 56.064 157.786Z" fill="#003C93" stroke="#26144D" stroke-width="1.5" stroke-linecap="round" stroke-linejoin="round"/>
<path d="M61.2046 160.745L60.7281 160.472C60.0927 160.104 59.5781 159.126 59.5781 158.282V141.476C59.5781 140.632 60.0927 140.244 60.7281 140.606L61.2046 140.879C61.8399 141.248 62.3545 142.225 62.3545 143.07V159.876C62.3545 160.72 61.8399 161.107 61.2046 160.745Z" fill="#003C93" stroke="#26144D" stroke-width="1.5" stroke-linecap="round" stroke-linejoin="round"/>
<path d="M66.4643 163.781L65.9878 163.508C65.3525 163.139 64.8379 162.162 64.8379 161.317V144.511C64.8379 143.667 65.3525 143.28 65.9878 143.641L66.4643 143.914C67.0997 144.283 67.6143 145.26 67.6143 146.105V162.911C67.6143 163.755 67.0997 164.142 66.4643 163.781Z" fill="#003C93" stroke="#26144D" stroke-width="1.5" stroke-linecap="round" stroke-linejoin="round"/>
<path d="M71.5103 166.695L71.0337 166.422C70.3984 166.053 69.8838 165.076 69.8838 164.231V147.425C69.8838 146.581 70.3984 146.194 71.0337 146.555L71.5103 146.828C72.1456 147.197 72.6602 148.174 72.6602 149.019V165.825C72.6602 166.669 72.1456 167.057 71.5103 166.695Z" fill="#003C93" stroke="#26144D" stroke-width="1.5" stroke-linecap="round" stroke-linejoin="round"/>
<path d="M76.6411 169.66L76.1646 169.387C75.5293 169.019 75.0146 168.041 75.0146 167.197V150.391C75.0146 149.547 75.5293 149.159 76.1646 149.521L76.6411 149.794C77.2764 150.163 77.7911 151.14 77.7911 151.985V168.791C77.7911 169.635 77.2764 170.022 76.6411 169.66Z" fill="#003C93" stroke="#26144D" stroke-width="1.5" stroke-linecap="round" stroke-linejoin="round"/>
<path d="M55.1445 58.8438L76.5935 71.3704" stroke="white" stroke-width="1.5" stroke-linecap="round" stroke-linejoin="round"/>
<path d="M90.0947 49.3193L149.41 84.0677" stroke="white" stroke-width="1.5" stroke-linecap="round" stroke-linejoin="round"/>
<path d="M137.261 144.404L138.023 129.318L156.422 118.201L167.02 127.331L137.261 144.404Z" fill="#037BF4" stroke="#26144D" stroke-width="1.5" stroke-linecap="round" stroke-linejoin="round"/>
<path d="M43.6685 75.3391L36.0381 70.863V68.2853C36.0381 59.5617 42.1881 56.0126 49.7486 60.3744L124.28 103.376C131.84 107.738 137.99 118.386 137.99 127.109V129.363L128.721 124.017V121.763C128.721 118.938 126.726 115.484 124.273 114.068L48.1158 70.1963C45.6634 68.7805 43.6685 69.9297 43.6685 72.7614V75.3391Z" fill="#004DA9" stroke="#26144D" stroke-width="1.5" stroke-linecap="round" stroke-linejoin="round"/>
</svg>

<svg width="227" height="246" fill="none" xmlns="http://www.w3.org/2000/svg"><path d="M225.879 199.166l-5.981 3.906-139.254-102.37L75.656 3.99 80.644 1l145.068 83.75.167 114.416z" fill="#85898C" stroke="#26144D" stroke-width="1.5" stroke-linecap="round" stroke-linejoin="round"/><path d="M220.724 187.449l-145.06-83.757V3.99l145.06 83.751v99.708z" fill="#9DA0A3" stroke="#26144D" stroke-width="1.5" stroke-linecap="round" stroke-linejoin="round"/><path d="M213.409 172.175l-14.444-8.338c-1.017-.586-1.842-2.165-1.842-3.522v-2.56c0-1.358.825-1.98 1.842-1.394l14.444 8.338c1.017.586 1.842 2.165 1.842 3.522v2.56c0 1.358-.825 1.98-1.842 1.394zm-6.979-12.962l-14.444-8.338c-1.017-.586-1.842-2.165-1.842-3.522v-2.56c0-1.358.825-1.98 1.842-1.394l14.444 8.338c1.016.586 1.842 2.165 1.842 3.522v2.56c0 1.358-.826 1.98-1.842 1.394zm-18.691-24.922l-14.444-8.337c-1.016-.587-1.842-2.166-1.842-3.523v-2.56c0-1.358.826-1.98 1.842-1.394l14.444 8.338c1.017.586 1.842 2.165 1.842 3.523v2.559c0 1.358-.825 1.98-1.842 1.394zm7.477-4.736l-14.444-8.338c-1.017-.586-1.842-2.165-1.842-3.523v-2.559c0-1.358.825-1.98 1.842-1.394l14.444 8.337c1.017.587 1.842 2.166 1.842 3.523v2.56c0 1.358-.825 1.98-1.842 1.394zm-94.72-73.285l-14.444-8.338c-1.017-.586-1.842-2.165-1.842-3.523v-2.56c0-1.357.825-1.98 1.842-1.393l14.444 8.337c1.017.586 1.842 2.165 1.842 3.523v2.56c0 1.358-.825 1.98-1.842 1.394zm8.474-4.24l-14.444-8.338c-1.017-.586-1.842-2.165-1.842-3.523v-2.56c0-1.358.825-1.98 1.842-1.393l14.444 8.337c1.016.586 1.842 2.165 1.842 3.523v2.56c0 1.357-.826 1.98-1.842 1.393zm26.173 37.889l-14.444-8.337c-1.017-.587-1.843-2.166-1.843-3.523v-2.56c0-1.358.826-1.98 1.843-1.394l14.444 8.338c1.016.586 1.842 2.165 1.842 3.523v2.56c0 1.357-.826 1.979-1.842 1.393zm8.726-4.486l-14.444-8.337c-1.017-.586-1.842-2.165-1.842-3.523v-2.56c0-1.357.825-1.98 1.842-1.393l14.444 8.337c1.017.587 1.842 2.166 1.842 3.523v2.56c0 1.358-.825 1.98-1.842 1.393zm32.65 2.99l-14.443-8.338c-1.017-.586-1.843-2.165-1.843-3.522v-2.56c0-1.358.826-1.98 1.843-1.394l14.443 8.338c1.017.586 1.843 2.165 1.843 3.522v2.56c0 1.358-.826 1.98-1.843 1.394zm-8.72-14.211l-14.444-8.338c-1.017-.586-1.842-2.165-1.842-3.522v-2.56c0-1.358.825-1.98 1.842-1.394l14.444 8.338c1.017.586 1.842 2.165 1.842 3.522v2.56c0 1.358-.825 1.98-1.842 1.394zm19.688 11.221l-14.444-8.337c-1.016-.586-1.842-2.165-1.842-3.523v-2.56c0-1.357.826-1.98 1.842-1.393l14.444 8.337c1.017.587 1.842 2.166 1.842 3.523v2.56c0 1.358-.825 1.98-1.842 1.393zm-91.98-59.325l-14.444-8.337c-1.017-.586-1.842-2.165-1.842-3.523v-2.56c0-1.357.825-1.98 1.842-1.393l14.444 8.337c1.016.586 1.842 2.165 1.842 3.523v2.56c0 1.357-.826 1.98-1.842 1.393z" fill="#BCBCBC"/><path d="M220.725 87.741l4.988-2.99" stroke="#26144D" stroke-width="1.5" stroke-linecap="round" stroke-linejoin="round"/><path d="M147.433 229.978L1.123 145.77l74.803-43.161 146.312 84.208-74.805 43.161z" fill="#4DA5FF" stroke="#26144D" stroke-width="1.5" stroke-linecap="round" stroke-linejoin="round"/><path d="M147.311 244.581L1 160.367v-14.711l146.311 84.208v14.717z" fill="#999" stroke="#26144D" stroke-width="1.5" stroke-linecap="round" stroke-linejoin="round"/><path d="M222.184 201.527l-74.804 43.161v-14.711l74.804-43.161v14.711z" fill="#D9D9D9" stroke="#26144D" stroke-width="1.5" stroke-linecap="round" stroke-linejoin="round"/><path d="M132.019 209.933l24.365 14.819 57.898-32.812-29.658-19.403-52.605 37.396z" fill="#B2B4B3" opacity=".46"/><path d="M137.204 213.05L30.519 151.28V82.64l106.685 61.764v68.646z" fill="#004DA9" stroke="#26144D" stroke-width="1.5" stroke-linecap="round" stroke-linejoin="round"/><path d="M137.219 144.246L30.533 82.476l53.54-30.888 106.679 61.77-53.533 30.888zm53.581 37.91l-53.539 30.888v-68.64L190.8 113.51v68.646z" fill="#0069EA" stroke="#26144D" stroke-width="1.5" stroke-linecap="round" stroke-linejoin="round"/><path d="M117.514 159.02v34.666l-32.332-18.654v-34.666l2.516 1.454 29.816 17.2z" stroke="#26144D" stroke-width="1.5" stroke-linecap="round" stroke-linejoin="round"/><path d="M117.515 159.02v31.885l-29.817-17.2V141.82l29.817 17.2z" fill="#003C93" stroke="#26144D" stroke-width="1.5" stroke-linecap="round" stroke-linejoin="round"/><path d="M183.101 153.065l-3.304 7.917-15.032 35.999-4.409 10.571-6.887-4.057.108-31.18c.082-8.317 6.016-18.381 13.266-22.476 2.077-1.168 4.034-1.727 5.768-1.727 1.735 0 3.114.508 4.276 1.467l6.214 3.486z" fill="#004DA9" stroke="#26144D" stroke-width="1.5" stroke-linecap="round" stroke-linejoin="round"/><path d="M179.794 160.98l-.254 27.485-14.778 8.515 15.032-36z" stroke="#26144D" stroke-width="1.5" stroke-linecap="round" stroke-linejoin="round"/><path d="M186.423 192.516l-26.074 15.035.108-31.18c.076-8.318 6.016-18.381 13.265-22.476 7.25-4.095 13.063-.667 12.987 7.651l-.286 30.97z" fill="#0069EA" stroke="#26144D" stroke-width="1.5" stroke-linecap="round" stroke-linejoin="round"/><path d="M186.215 162.925l-2.369 4.305-7.497 13.65-2.643 4.8-4.772-2.698c-2.09-.737-3.424-2.946-3.424-6.286 0-5.86 4.117-12.984 9.193-15.911 2.827-1.631 5.356-1.619 7.04-.279h.006l4.466 2.419z" fill="#004DA9" stroke="#26144D" stroke-width="1.5" stroke-linecap="round" stroke-linejoin="round"/><path d="M186.354 178.021c3.59-6.213 3.59-12.928.001-14.999-3.588-2.071-9.408 1.288-12.997 7.501-3.59 6.213-3.59 12.928-.002 14.999 3.589 2.07 9.408-1.288 12.998-7.501z" fill="#0069EA" stroke="#26144D" stroke-width="1.5" stroke-linecap="round" stroke-linejoin="round"/><path d="M167.018 127.333L65.6 66.343l7.98-10.621 94.22 54.557-.782 17.054z" stroke="#26144D" stroke-width="1.5" stroke-linecap="round" stroke-linejoin="round"/><path d="M167.021 127.332l.781-17.054 15.985-9.218 7.014 12.45-23.78 13.822z" fill="#037BF4" stroke="#26144D" stroke-width="1.5" stroke-linecap="round" stroke-linejoin="round"/><path d="M167.802 110.278L73.582 55.72l15.985-9.225 94.22 54.564-15.985 9.219z" fill="#037BF4" stroke="#26144D" stroke-width="1.5" stroke-linecap="round" stroke-linejoin="round"/><path d="M43.391 89.89l31.875-18.787s-32.04-4.323-32.307-4.234c-.267.088-3.443 11.11-3.443 11.11l3.869 11.911h.006zm80.999 46.838l4.453-12.705 9.181 5.296-.762 15.085-12.872-7.676z" fill="#004DA9" stroke="#26144D" stroke-width="1.5" stroke-linecap="round" stroke-linejoin="round"/><path d="M30.651 82.481l5.426-12.038 7.681 4.451-.394 15.263-12.713-7.676z" fill="#004DA9" stroke="#26144D" stroke-width="1.5" stroke-linecap="round" stroke-linejoin="round"/><path d="M156.36 116.352v2.254l-18.361 10.762-6.951-15.93-92.41-53.097 19.607-11.568c2.497-1.55 5.998-1.39 9.867.844l74.537 43.002c7.561 4.362 13.711 15.009 13.711 23.733z" fill="#037BF4" stroke="#26144D" stroke-width="1.5" stroke-linecap="round" stroke-linejoin="round"/><path d="M51.019 154.872l-.477-.273c-.635-.368-1.15-1.346-1.15-2.19v-16.806c0-.844.515-1.232 1.15-.87l.477.273c.635.368 1.15 1.346 1.15 2.191v16.806c0 .844-.515 1.231-1.15.869zm5.045 2.914l-.477-.273c-.635-.368-1.15-1.346-1.15-2.19v-16.806c0-.844.515-1.232 1.15-.87l.477.273c.635.369 1.15 1.346 1.15 2.191v16.806c0 .844-.515 1.231-1.15.869zm5.141 2.959l-.477-.273c-.635-.368-1.15-1.346-1.15-2.19v-16.806c0-.844.515-1.232 1.15-.87l.477.273c.635.369 1.15 1.346 1.15 2.191v16.806c0 .844-.515 1.231-1.15.869zm5.259 3.036l-.476-.273c-.635-.369-1.15-1.346-1.15-2.191v-16.806c0-.844.515-1.231 1.15-.87l.476.273c.636.369 1.15 1.346 1.15 2.191v16.806c0 .844-.514 1.231-1.15.87zm5.046 2.914l-.476-.273c-.636-.369-1.15-1.346-1.15-2.191v-16.806c0-.844.514-1.231 1.15-.87l.476.273c.636.369 1.15 1.346 1.15 2.191v16.806c0 .844-.514 1.232-1.15.87zm5.131 2.965l-.476-.273c-.636-.368-1.15-1.346-1.15-2.19v-16.806c0-.844.514-1.232 1.15-.87l.476.273c.635.369 1.15 1.346 1.15 2.191v16.806c0 .844-.515 1.231-1.15.869z" fill="#003C93" stroke="#26144D" stroke-width="1.5" stroke-linecap="round" stroke-linejoin="round"/><path d="M55.145 58.844L76.594 71.37m13.501-22.05l59.315 34.748" stroke="#fff" stroke-width="1.5" stroke-linecap="round" stroke-linejoin="round"/><path d="M137.261 144.404l.762-15.086 18.399-11.117 10.598 9.13-29.759 17.073z" fill="#037BF4" stroke="#26144D" stroke-width="1.5" stroke-linecap="round" stroke-linejoin="round"/><path d="M43.669 75.34l-7.63-4.477v-2.578c0-8.723 6.15-12.272 13.71-7.91l74.531 43.001c7.56 4.362 13.71 15.01 13.71 23.733v2.254l-9.269-5.346v-2.254c0-2.825-1.995-6.279-4.448-7.695L48.116 70.196c-2.453-1.415-4.447-.266-4.447 2.565v2.578z" fill="#004DA9" stroke="#26144D" stroke-width="1.5" stroke-linecap="round" stroke-linejoin="round"/></svg>
